Flat-Remix-Dark/apps/scalable/google-chrome.svg

<svg xmlns="http://www.w3.org/2000/svg" xmlns:xlink="http://www.w3.org/1999/xlink" width="384pt" height="384pt" version="1.1" viewBox="0 0 384 384">
 <defs>
  <clipPath id="clip1">
   <path d="M 23 23 L 361 23 L 361 361 L 23 361 Z M 23 23"/>
  </clipPath>
  <clipPath id="clip2">
   <path d="M 192 23.25 C 98.800781 23.25 23.25 98.800781 23.25 192 C 23.25 285.199219 98.800781 360.75 192 360.75 C 285.199219 360.75 360.75 285.199219 360.75 192 C 360.75 98.800781 285.199219 23.25 192 23.25 Z M 192 112.8125 C 235.734375 112.8125 271.1875 148.265625 271.1875 192 C 271.1875 235.734375 235.734375 271.1875 192 271.1875 C 148.265625 271.1875 112.8125 235.734375 112.8125 192 C 112.8125 148.265625 148.265625 112.8125 192 112.8125 Z M 192 112.8125"/>
  </clipPath>
  <filter id="alpha" width="100%" height="100%" x="0%" y="0%" filterUnits="objectBoundingBox">
   <feColorMatrix in="SourceGraphic" type="matrix" values="0 0 0 0 1 0 0 0 0 1 0 0 0 0 1 0 0 0 1 0"/>
  </filter>
  <mask id="mask0">
   <g filter="url(#alpha)">
    <rect width="384" height="384" x="0" y="0" style="fill:rgb(0%,0%,0%);fill-opacity:0.101961"/>
   </g>
  </mask>
  <clipPath id="clip3">
   <rect width="384" height="384" x="0" y="0"/>
  </clipPath>
  <g id="surface5" clip-path="url(#clip3)">
   <path style="fill:rgb(0%,0%,0%)" d="M 48.277344 103.335938 L 114.386719 206.988281 L 139.835938 173.496094 Z M 341.550781 113.714844 L 204.730469 113.792969 L 219.777344 152.945312 Z M 209.949219 235.839844 L 183.488281 360.554688 L 251.199219 244.59375 Z M 209.949219 235.839844"/>
  </g>
 </defs>
 <g>
  <path style="fill:rgb(100%,78.431373%,19.215686%)" d="M 341.539062 113.753906 C 105.179688 302.585938 223.359375 208.167969 341.539062 113.753906 Z M 341.539062 113.753906 L 204.917969 113.808594 C 242.539062 119.976562 271.246094 152.632812 271.246094 192 C 271.21875 211.359375 264.105469 230.039062 251.246094 244.515625 L 183.492188 360.539062 C 186.308594 360.675781 189.148438 360.75 192 360.75 C 285.199219 360.75 360.75 285.199219 360.75 192 C 360.75 163.757812 353.800781 137.144531 341.539062 113.753906 Z M 341.539062 113.753906"/>
  <path style="fill:rgb(83.137255%,10.196078%,10.196078%)" d="M 192 23.25 C 131.332031 23.25 78.148438 55.273438 48.40625 103.332031 L 114.257812 207.039062 C 114.5625 211.972656 112.757812 192.355469 112.753906 192 C 112.753906 148.234375 148.234375 112.753906 192 112.753906 C 196.109375 112.789062 200.210938 113.140625 204.261719 113.808594 L 341.539062 113.753906 C 313.332031 59.957031 256.957031 23.25 192 23.25 Z M 48.386719 103.363281 C 7.460938 299.121094 27.925781 201.242188 48.386719 103.363281 Z M 48.386719 103.363281"/>
  <path style="fill:rgb(5.882353%,63.137255%,37.254902%)" d="M 48.40625 103.332031 C 32.460938 129.097656 23.25 159.472656 23.25 192 C 23.25 282.34375 94.246094 356.105469 183.492188 360.539062 L 251.246094 244.515625 C 236.226562 261.488281 214.664062 271.21875 192 271.246094 C 154.054688 271.214844 121.460938 244.292969 114.257812 207.039062 Z M 48.40625 103.332031"/>
  <path style="fill:rgb(100%,100%,100%)" d="M 271.246094 192 C 271.246094 235.765625 235.765625 271.246094 192 271.246094 C 148.234375 271.246094 112.753906 235.765625 112.753906 192 C 112.753906 148.234375 148.234375 112.753906 192 112.753906 C 235.765625 112.753906 271.246094 148.234375 271.246094 192 Z M 271.246094 192"/>
  <path style="fill:rgb(21.176471%,48.235294%,94.117647%)" d="M 257.390625 192 C 257.390625 228.113281 228.113281 257.390625 192 257.390625 C 155.886719 257.390625 126.609375 228.113281 126.609375 192 C 126.609375 155.886719 155.886719 126.609375 192 126.609375 C 228.113281 126.609375 257.390625 155.886719 257.390625 192 Z M 257.390625 192"/>
  <g clip-path="url(#clip1)">
   <g clip-path="url(#clip2)">
    <use mask="url(#mask0)" xlink:href="#surface5"/>
   </g>
  </g>
 </g>
</svg>

<svg xmlns="http://www.w3.org/2000/svg" width="384pt" height="384pt" version="1.1" viewBox="0 0 384 384">
 <g>
  <path d="m 341.53906,113.75391 c -236.35937,188.83203 -118.17969,94.41406 0,0 z m 0,0 -136.62109,0.0547 46.32812,130.70703 -67.7539,116.02344 c 2.8164,0.13672 5.65625,0.21094 8.50781,0.21094 93.19922,0 168.75,-75.55078 168.75,-168.75 0,-28.24219 -6.94922,-54.85547 -19.21094,-78.24609 z" style="fill:#ffc730"/>
  <path d="m 192,23.25 c -60.66797,0 -113.851562,32.023438 -143.59375,80.08203 L 116.44542,214.79514 192,112.75391 c 4.10937,0.0352 8.21094,0.38672 12.26172,1.05468 l 137.27734,-0.0547 C 313.33203,59.957031 256.95703,23.25 192,23.25 Z M 48.386719,103.36328 c -40.925781,195.75781 -20.460938,97.87891 0,0 z" style="fill:#d41919"/>
  <path d="M 48.40625,103.33203 C 32.460938,129.09766 23.25,159.47266 23.25,192 c 0,90.34375 70.996094,164.10547 160.24219,168.53906 l 67.7539,-116.02344 C 236.22656,261.48828 214.66406,271.21875 192,271.24609 l -75.55458,-56.45095 z" style="fill:#0ca15e"/>
 </g>
 <path d="M 341.55415,113.71483 230.072,149.55823 201.35217,113.79676 Z" style="fill-opacity:0.95295697;opacity:0.3"/>
 <path d="m 183.48828,360.55469 25.32008,-114.33246 45.36749,-6.74548 z" style="fill-opacity:0.95295697;opacity:0.3"/>
 <path d="M 48.277344,103.33594 136.9627,179.80768 121.40623,222.9552 Z" style="fill-opacity:0.95295697;opacity:0.3"/>
 <path style="fill:#ffffff" d="m 271.24609,192 c 0,43.76562 -35.48047,79.24609 -79.24609,79.24609 -43.76563,0 -79.24609,-35.48047 -79.24609,-79.24609 0,-43.76563 35.48046,-79.24609 79.24609,-79.24609 43.76562,0 79.24609,35.48046 79.24609,79.24609 z m 0,0"/>
 <path style="fill:#357af0" d="m 257.39062,192 c 0,36.11328 -29.27734,65.39062 -65.39062,65.39062 -36.11328,0 -65.39062,-29.27734 -65.39062,-65.39062 0,-36.11328 29.27734,-65.39062 65.39062,-65.39062 36.11328,0 65.39062,29.27734 65.39062,65.39062 z m 0,0"/>
</svg>
